svgs/thin/stairs.svg

<svg xmlns="http://www.w3.org/2000/svg" viewBox="0 0 576 512"><!--! Font Awesome Pro 6.6.0 by @fontawesome - https://fontawesome.com License - https://fontawesome.com/license (Commercial License) Copyright 2024 Fonticons, Inc. --><path d="M424 40c0-4.4 3.6-8 8-8l136 0c4.4 0 8 3.6 8 8s-3.6 8-8 8L440 48l0 136c0 4.4-3.6 8-8 8l-136 0 0 136c0 4.4-3.6 8-8 8l-136 0 0 136c0 4.4-3.6 8-8 8L8 480c-4.4 0-8-3.6-8-8s3.6-8 8-8l128 0 0-136c0-4.4 3.6-8 8-8l136 0 0-136c0-4.4 3.6-8 8-8l136 0 0-136z"/></svg>

<svg xmlns="http://www.w3.org/2000/svg" viewBox="0 0 576 512"><!--! Font Awesome Pro 6.4.0 by @fontawesome - https://fontawesome.com License - https://fontawesome.com/license (Commercial License) Copyright 2023 Fonticons, Inc. --><path d="M424 40c0-4.4 3.6-8 8-8H568c4.4 0 8 3.6 8 8s-3.6 8-8 8H440V184c0 4.4-3.6 8-8 8H296V328c0 4.4-3.6 8-8 8H152V472c0 4.4-3.6 8-8 8H8c-4.4 0-8-3.6-8-8s3.6-8 8-8H136V328c0-4.4 3.6-8 8-8H280V184c0-4.4 3.6-8 8-8H424V40z"/></svg>
